X:83
T:The Roaring Barmaid
T:The Butlers of Glen Avenue
R:jig
M:6/8
L:1/8
D:Lunasa: Otherworld
D:Danu: Think Before You Think
N:Learned from Lunasa: Otherworld
N:This is not really `The Butlers of Glen Avenue', that is #211
Z:Michael Abraham Shulman
N:Set is ~ - Sliabh Russel - Cathal McConnel's
K:D
|:GAG EGD|GAG EGD|DEG BGG|dGG BGB|\
~G3 EGD|~G3 EGD|GAB deg|deg edB:|
|:deg b2b|bab deg|b2b bag|edB deg|\
b2b bab|agg bgg|agg egg|deg edB:|
